X: 12850
T: Fergie's
R: jig
M: 6/8
K: Eminor
B|Bee efg|fed Bee|d2B ABA|FGA B2A|
Bee efg|fed BAG|FGA BAG|FEE E2:|
z|B2A BEE|EFG F2E|F2A d2e|fed BAF|
B2A BEE|EFG F2E|FGA BAG|FEE E2:|
B|Bee gee|Bee BAG|FAA dAA|FGA B2A|
Bee gee|Bee BAG|FGA BAG|FEE E2:|
z|BEE BEE|EFG F2E|DFA d2e|fed BAF|
BEE BEE|EFG FEF|DFA BAG|FEE E2:|

